Icons/Colored/RoadUpgradeRetainingWall.svg

<svg xmlns="http://www.w3.org/2000/svg" xml:space="preserve" fill-rule="evenodd" stroke-linejoin="round" stroke-miterlimit="2" clip-rule="evenodd" viewBox="0 0 64 64">
  <g id="grey" fill-rule="nonzero">
    <path fill="#434343" d="m3.697 33.109 29.61 25.369 25.144-15.536-.176-11.7-2.13.962-52.447-1.139-.001 2.044Z"/>
    <path fill="#d4d4d4" d="m4.225 30.915 34.087 22.391 13.869-8.215-25.416-28.042-22.54 13.866Z"/>
    <path fill="#929191" d="m3.664 31.053 29.871 25.1 11.644-6.914-30.016-25.114-11.499 6.928Z"/>
    <path fill="#929191" d="m16.961 23.2 29.853 25.07 9.618-5.533-29.667-25.688-3.222 1.983-6.582 4.168Z"/>
    <path fill="#808080" d="m45.485 49.74 11.313-6.694-11.313 6.694Z"/>
    <path fill="#716e6e" d="m3.664 31.053 29.871 25.1 3.162-1.877L6.558 29.309l-2.894 1.744Z"/>
    <path fill="#b0acac" d="m26.563 7.449 29.582 24.755 2.13-.962-30.072-24.44-1.64.647Z"/>
    <path fill="#d4d4d4" d="M56.432 42.737 26.765 17.049l-.202-9.6 29.582 24.755.287 10.533Z"/>
  </g>
</svg>

<?xml version="1.0" encoding="UTF-8" standalone="no"?>
<!DOCTYPE svg PUBLIC "-//W3C//DTD SVG 1.1//EN" "http://www.w3.org/Graphics/SVG/1.1/DTD/svg11.dtd">
<svg width="100%" height="100%" viewBox="0 0 64 64" version="1.1" xmlns="http://www.w3.org/2000/svg" xmlns:xlink="http://www.w3.org/1999/xlink" xml:space="preserve" xmlns:serif="http://www.serif.com/" style="fill-rule:evenodd;clip-rule:evenodd;stroke-linejoin:round;stroke-miterlimit:2;">
    <g id="surface1">
        <path d="M3.695,33.109L33.309,58.477L58.449,42.941L58.273,31.242L56.145,32.203L3.699,31.066L3.695,33.109Z" style="fill:#434343;fill-rule:nonzero;"/>
        <path d="M4.227,30.914L38.313,53.305L52.18,45.09L26.766,17.051L4.227,30.914Z" style="fill:#d4d4d4;fill-rule:nonzero;"/>
        <path d="M3.664,31.055L33.535,56.152L45.18,49.238L15.164,24.125L3.664,31.055Z" style="fill:#929090;fill-rule:nonzero;"/>
        <path d="M16.961,23.199L46.813,48.27L56.434,42.738L26.766,17.051L23.543,19.031L16.961,23.199Z" style="fill:#929090;fill-rule:nonzero;"/>
        <path d="M45.484,49.738L56.797,43.047L45.484,49.738Z" style="fill:#7f7f7f;fill-rule:nonzero;"/>
        <path d="M3.664,31.055L33.535,56.152L36.695,54.277L6.559,29.309L3.664,31.055Z" style="fill:#706e6e;fill-rule:nonzero;"/>
        <path d="M26.563,7.449L56.145,32.203L58.273,31.242L28.203,6.801L26.563,7.449Z" style="fill:#b0abab;fill-rule:nonzero;"/>
        <path d="M56.434,42.738L26.766,17.051L26.563,7.449L56.145,32.203L56.434,42.738Z" style="fill:#d4d4d4;fill-rule:nonzero;"/>
    </g>
</svg>
